packages/icons/raw/imported/TravelRest.svg

<svg width="32" height="32" viewBox="0 0 32 32" fill="none" xmlns="http://www.w3.org/2000/svg">
<path d="M9.21739 16.2817C9.82764 15.1872 10.5256 14.1435 11.3043 13.161C12.1026 12.3028 12.9322 12.1207 15.4783 12.1207C18.0243 12.1207 23.0748 13.161 24.3791 13.5355C25.6835 13.91 25.913 14.3781 25.913 15.2415V16.2817M9.21739 16.2817L13.3913 21.4396H14.4348C14.4348 21.4396 19.1304 16.2817 21.2174 16.2817H25.913M9.21739 16.2817H4M25.913 16.2817H28M28 11.6006V23.4042C28 23.7332 27.7332 24 27.4042 24V24C27.139 24 26.9057 23.8247 26.8319 23.57L25.913 20.3994H16M4 9V16.2817M4 16.2817V23.4042C4 23.7332 4.26676 24 4.59582 24V24C4.861 24 5.09427 23.8247 5.16809 23.57L6.08696 20.3994H12.3478M10.6835 13.9412C10.4799 13.5269 10.1575 13.1821 9.75719 12.9506C9.35686 12.7191 8.89662 12.6113 8.43478 12.6409C7.13565 12.6409 6.08696 13.161 6.08696 14.4613V15.2415C6.11046 15.5095 6.22796 15.7607 6.41879 15.9509C6.60962 16.1412 6.86158 16.2583 7.13043 16.2817" stroke="black" stroke-miterlimit="10" stroke-linecap="round"/>
</svg>

<svg width="32" height="32" fill="none" xmlns="http://www.w3.org/2000/svg"><path d="M9.217 16.282a23.263 23.263 0 0 1 2.087-3.121c.799-.858 1.628-1.04 4.174-1.04 2.546 0 7.597 1.04 8.901 1.415 1.304.374 1.534.842 1.534 1.706v1.04m-16.696 0 4.174 5.158h1.044s4.695-5.158 6.782-5.158h4.696m-16.696 0H4m21.913 0H28m0-4.681v11.803a.596.596 0 0 1-.596.596v0a.596.596 0 0 1-.572-.43l-.919-3.17H16M4 9v7.282m0 0v7.122c0 .33.267.596.596.596v0a.596.596 0 0 0 .572-.43l.919-3.17h6.26m-1.663-6.459a2.334 2.334 0 0 0-2.25-1.3c-1.298 0-2.347.52-2.347 1.82v.78a1.143 1.143 0 0 0 1.043 1.04" stroke="#000" stroke-miterlimit="10" stroke-linecap="round"/></svg>
